X:186
T: BEI DER STILLEN MONDESHELLE
N: F0325
O: Europa, Mitteleuropa, Deutschland
R: Jugend - Lied, Natur, Wander - Lied
M: 4/4
L: 1/8
K: F
 | F2F2c2c2 | BABcA2F2 |
GBAGc2F2 | B2A2G4 |
F2F2c2c2 | dfedc2A2 |
BABcA2F2 | GFGAF2z2

@@@ Tune index: 5617
